icons/horizon-filled.svg

<svg width="256" height="256" viewBox="0 0 256 256" fill="none" xmlns="http://www.w3.org/2000/svg">
<rect width="256" height="256" rx="60" fill="#8C6ED3" />
<path d="M69.5002 196.463C59.6019 188.013 51.6584 177.513 46.2194 165.69C40.7804 153.866 37.9759 141.002 38.0002 127.988C38.0002 103.125 48.0877 80.6255 64.3627 64.3505C98.8627 29.8618 154.554 29.138 189.943 62.7117C225.328 96.2892 227.525 151.943 194.893 188.202C162.26 224.464 106.685 228.128 69.5752 196.463H69.5002ZM62.2627 133.538C72.2002 124.725 79.2502 112.988 98.0002 112.988C128 112.988 128 142.988 158 142.988C176.75 142.988 183.8 131.25 193.775 122.438C190.711 86.1117 158.776 59.1492 122.45 62.213C86.1239 65.2767 59.1614 97.2117 62.2252 133.538H62.2627Z" fill="white"/>
</svg>

<svg xmlns="http://www.w3.org/2000/svg" width="256" height="256" fill="none"><rect width="256" height="256" fill="#8C6ED3" rx="60"/><path fill="#fff" d="M69.5 196.463A89.82 89.82 0 0 1 38 127.988c0-24.863 10.088-47.362 26.363-63.637 34.5-34.49 90.191-35.213 125.58-1.64 35.385 33.578 37.582 89.232 4.95 125.491-32.633 36.262-88.208 39.926-125.318 8.261zm-7.237-62.925c9.937-8.813 16.987-20.55 35.737-20.55 30 0 30 30 60 30 18.75 0 25.8-11.738 35.775-20.55-3.064-36.326-34.999-63.289-71.325-60.225s-63.289 34.999-60.225 71.325z"/></svg>
